resources/svg/call-icon.svg

<svg width="20" height="20" viewBox="0 0 20 20" fill="#3362CC" class="dark:fill-white" xmlns="http://www.w3.org/2000/svg">
    <g clip-path="url(#clip0_877_4770)">
    <path d="M19.4752 15.4292L15.4271 12.7296C14.9134 12.3898 14.2248 12.5016 13.845 12.9865L12.6658 14.5027C12.5143 14.7025 12.2388 14.7604 12.0196 14.6386L11.7953 14.515C11.0517 14.1097 10.1266 13.6051 8.26251 11.7404C6.39845 9.87568 5.89286 8.94981 5.48757 8.20761L5.36458 7.98331C5.24113 7.76412 5.29799 7.48748 5.49788 7.33473L7.01297 6.15592C7.49774 5.7761 7.60972 5.08768 7.27028 4.57382L4.57068 0.525745C4.2228 0.00246303 3.52486 -0.154623 2.9863 0.169118L1.29355 1.18596C0.761671 1.49865 0.371456 2.00506 0.204723 2.59907C-0.404835 4.82007 0.0537292 8.65317 5.70024 14.3003C10.1919 18.7917 13.5358 19.9995 15.8341 19.9995C16.363 20.0018 16.8899 19.9329 17.4005 19.7949C17.9947 19.6283 18.5012 19.2381 18.8136 18.7061L19.8315 17.0143C20.1557 16.4756 19.9987 15.7773 19.4752 15.4292ZM19.2572 16.6723L18.2417 18.3651C18.0173 18.7491 17.653 19.0314 17.2252 19.153C15.1748 19.7159 11.5927 19.2496 6.17181 13.8288C0.750931 8.4079 0.284711 4.82608 0.847635 2.77541C0.969336 2.34704 1.25203 1.98229 1.6365 1.75755L3.32926 0.742041C3.56294 0.601437 3.86586 0.66959 4.01681 0.896666L5.48328 3.09833L6.71411 4.94439C6.86151 5.16728 6.81308 5.46603 6.6028 5.63096L5.08736 6.80977C4.62618 7.16242 4.49448 7.80048 4.77842 8.30689L4.89875 8.52553C5.32471 9.30675 5.85428 10.2786 7.78766 12.2117C9.72105 14.1447 10.6926 14.6743 11.4734 15.1002L11.6924 15.2209C12.1988 15.5048 12.8369 15.3731 13.1895 14.9119L14.3683 13.3965C14.5333 13.1863 14.8319 13.1379 15.0549 13.2852L19.1026 15.9848C19.3299 16.1356 19.398 16.4387 19.2572 16.6723Z" />
    <path d="M11.3333 3.33549C14.461 3.33896 16.9956 5.87363 16.9991 9.00133C16.9991 9.1854 17.1483 9.3346 17.3324 9.3346C17.5165 9.3346 17.6657 9.1854 17.6657 9.00133C17.6618 5.50564 14.829 2.67277 11.3333 2.66895C11.1492 2.66895 11 2.81814 11 3.00222C11 3.18629 11.1492 3.33549 11.3333 3.33549Z" />
    <path d="M11.3333 5.33549C13.357 5.33787 14.997 6.97786 14.9994 9.00162C14.9994 9.1857 15.1486 9.33489 15.3327 9.33489C15.5167 9.33489 15.6659 9.1857 15.6659 9.00162C15.6632 6.60987 13.725 4.67168 11.3333 4.66895C11.1492 4.66895 11 4.81814 11 5.00222C11 5.18629 11.1492 5.33549 11.3333 5.33549Z" />
    <path d="M11.3333 7.33451C12.2531 7.3356 12.9986 8.08104 12.9997 9.00094C12.9997 9.18502 13.1489 9.33421 13.333 9.33421C13.517 9.33421 13.6662 9.18502 13.6662 9.00094C13.6648 7.71309 12.6211 6.66941 11.3333 6.66797C11.1492 6.66797 11 6.81717 11 7.00124C11 7.18531 11.1492 7.33451 11.3333 7.33451Z" />
    </g>
    <defs>
    <clipPath id="clip0_877_4770">
    <rect width="20" height="20"/>
    </clipPath>
    </defs>
</svg>

<svg width="20" height="20" fill="#3362CC" class="dark:fill-white" xmlns="http://www.w3.org/2000/svg"><g clip-path="url(#a)"><path d="m19.5 15.4-4-2.7c-.6-.3-1.3-.2-1.7.3l-1.1 1.5c-.2.2-.5.3-.7.1h-.2c-.7-.5-1.7-1-3.5-2.9a13.6 13.6 0 0 1-2.8-3.5L5.4 8c-.2-.2-.1-.5.1-.7L7 6.2c.5-.4.6-1.1.3-1.6L4.6.6C4.2 0 3.6-.3 3 .1l-1.7 1C.8 1.5.3 2 .2 2.6c-.6 2.2-.1 6 5.5 11.7 4.5 4.5 7.8 5.7 10.1 5.7.6 0 1 0 1.6-.2a3 3 0 0 0 1.4-1l1-1.8c.4-.5.2-1.2-.3-1.6Zm-.2 1.3-1 1.7-1 .8c-2.1.5-5.7 0-11.1-5.4-5.4-5.4-6-9-5.4-11 .2-.5.5-.8.8-1l1.7-1c.3-.2.6-.1.7.1l1.5 2.2 1.2 1.8c.2.3.1.6-.1.7L5.1 6.8c-.5.4-.6 1-.3 1.5l.1.2c.4.8 1 1.8 2.9 3.7 2 2 2.9 2.5 3.7 2.9l.2.1c.5.3 1.1.2 1.5-.3l1.2-1.5c.1-.2.4-.3.7-.1l4 2.7c.2.1.3.4.2.7Zm-8-13.4C14.5 3.3 17 6 17 9a.3.3 0 1 0 .7 0c0-3.5-2.9-6.3-6.4-6.3a.3.3 0 1 0 0 .6Z"/><path d="M11.3 5.3C13.3 5.3 15 7 15 9a.3.3 0 1 0 .7 0c0-2.4-2-4.3-4.4-4.3a.3.3 0 1 0 0 .6Z"/><path d="M11.3 7.3c1 0 1.7.8 1.7 1.7a.3.3 0 1 0 .7 0c0-1.3-1-2.3-2.4-2.3a.3.3 0 1 0 0 .6Z"/></g><defs><clipPath id="a"><path d="M0 0h20v20H0z"/></clipPath></defs></svg>
